icons/wallet.svg

<svg width="24" height="24" viewBox="0 0 24 24" fill="none" xmlns="http://www.w3.org/2000/svg">
<path fill-rule="evenodd" clip-rule="evenodd" d="M2 4C2 3.44772 2.44772 3 3 3H17C17.5523 3 18 3.44772 18 4V7H21C21.5523 7 22 7.44772 22 8V20C22 20.5523 21.5523 21 21 21H3C2.44772 21 2 20.5523 2 20V4ZM16 7V5H4V7H16ZM4 9V19H20V9H4ZM15 14C15 13.4477 15.4477 13 16 13H17C17.5523 13 18 13.4477 18 14C18 14.5523 17.5523 15 17 15H16C15.4477 15 15 14.5523 15 14Z" fill="black"/>
</svg>

<svg
  width="24"
  height="24"
  viewBox="0 0 24 24"
  xmlns="http://www.w3.org/2000/svg"
>
  <path
    fill-rule="evenodd"
    clip-rule="evenodd"
    d="M2 4a1 1 0 0 1 1-1h14a1 1 0 0 1 1 1v3h3a1 1 0 0 1 1 1v12a1 1 0 0 1-1 1H3a1 1 0 0 1-1-1V4zm14 3V5H4v2h12zM4 9v10h16V9H4zm11 5a1 1 0 0 1 1-1h1a1 1 0 1 1 0 2h-1a1 1 0 0 1-1-1z"
  />
</svg>
